/* XPM */
static char *collect[] = {
"64 64 8 1",
"! c #9B8B7F",
"# c #8B0000",
"$ c #B22222",
"% c #DC143C",
"& c #FFD700",
"( c #B8860B",
") c #1a1a1a",
"* c #FFFFFF",
"!!!!!!!!!!!!!!!!!!!!!!!!!!!!!!!!!!!!!!!!!!!!!!!!!!!!!!!!!!!!!!!!",
"!!!!!!!!!!!!!!!!!!!!!!!!!!!!!!!!!!!!!!!!!!!!!!!!!!!!!!!!!!!!!!!!",
"!!!!!!!!!!!!!!!!!!!!!!!!!!!!!!!!!!!!!!!!!!!!!!!!!!!!!!!!!!!!!!!!",
"!!!!!!!!!!!!!!!!!!!!!!!!!!!!!!!!!!!!!!!!!!!!!!!!!!!!!!!!!!!!!!!!",
"!!!!!!!!!!!!!!!!!!!!!!!!!!!!!!!(&!!!!!!!!!!!!!!!!!!!!!!!!!!!!!!!",
"!!!!!!!!!!!!!!!!!!!!!!!!!!!!!!!(&!!!!!!!!!!!!!!!!!!!!!!!!!!!!!!!",
"!!!!!!!!!!!!!!!!!!!!!!!!!!!!!!!(&!!!!!!!!!!!!!!!!!!!!!!!!!!!!!!!",
"!!!!!!!!!!!!!!!!!!!!!!!!!!!!!!!(&!!!!!!!!!!!!!!!!!!!!!!!!!!!!!!!",
"!!!!!!!!!!!!!!!!!!!!!!!!!!!!!!!(&!!!!!!!!!!!!!!!!!!!!!!!!!!!!!!!",
"!!!!!!!!!!!!!!!!!!!!!!!!!!!!!!!(&!!!!!!!!!!!!!!!!!!!!!!!!!!!!!!!",
"!!!!!!!!!!!!!!!!!!!!!!!!!!!!!!!(&!!!!!!!!!!!!!!!!!!!!!!!!!!!!!!!",
"!!!!!!!!!!!!!!!!!!!!!!!!!!!!!!!(&!!!!!!!!!!!!!!!!!!!!!!!!!!!!!!!",
"!!!!!!!!!!!!!!!!!!!!(((((((((((((((((((((((((!!!!!!!!!!!!!!!!!!!",
"!!!!!!!!!!!!!!!!!!!!&&&&&&&&&&&&&&&&&&&&&&&&&!!!!!!!!!!!!!!!!!!!",
"!!!!!!!!!!!!!!!!!!!!!!!!!!###$$$$$$$###!!!!!!!!!!!!!!!!!!!!!!!!!",
"!!!!!!!!!!!!!!!!!!!!!!!!###$$$$$$$$$$$###!!!!!!!!!!!!!!!!!!!!!!!",
"!!!!!!!!!!!!!!!!!!!!!!!##$$$$$$$$$$$$$$$##!!!!!!!!!!!!!!!!!!!!!!",
"!!!!!!!!!!!!!!!!!!!!!!##$$$$$$$$$$$$$$$$$##!!!!!!!!!!!!!!!!!!!!!",
"!!!!!!!!!!!!!!!!!!!!!##$$$$$$$$$$$$$$$$$$$##!!!!!!!!!!!!!!!!!!!!",
"!!!!!!!!!!!!!!!!!!!!##$$$$$$$$$$$$$$$$$$$$$##!!!!!!!!!!!!!!!!!!!",
"!!!!!!!!!!!!!!!!!!!!#$$$$$$$$$$%%%$$$$$$$$$$#!!!!!!!!!!!!!!!!!!!",
"!!!!!!!!!!!!!!!!!!!##$$$$$$$%%%%%%%%%$$$$$$$##!!!!!!!!!!!!!!!!!!",
"!!!!!!!!!!!!!!!!!!!#$$$$$$$%%%%%%%%%%%$$$$$$$#!!!!!!!!!!!!!!!!!!",
"!!!!!!!!!!!!!!!!!!##$$$$$$%%%%&&&&&%%%%$$$$$$##!!!!!!!!!!!!!!!!!",
"!!!!!!!!!!!!!!!!!!#$$$$$$%%%&&&&&&&&&%%%$$$$$$#!!!!!!!!!!!!!!!!!",
"!!!!!!!!!!!!!!!!!!#$$$$$%%*&&&&&&&&&&&%%%$$$$$#!!!!!!!!!!!!!!!!!",
"!!!!!!!!!!!!!!!!!##$$$$$%%*&&&&&&&&&&&%%%$$$$$##!!!!!!!!!!!!!!!!",
"!!!!!!!!!!!!!!!!!#$$$$$%%%&&&&&&&&&&&&&%%%$$$$$#!!!!!!!!!!!!!!!!",
"!!!!!!!!!!!!!!!!!#$$$$$%%&&&&&&&&&&&&&&&%%$$$$$#!!!!!!!!!!!!!!!!",
"!!!!!!!!!!!!!!!!!#$$$$$%%&&&&&&&&&&&&&&&%%$$$$$#!!!!!!!!!!!!!!!!",
"!!!!!!!!!!!!!!!!!#$$$$$%%&&&&&&&#&&&&&&&%%$$$$$#!!!!!!!!!!!!!!!!",
"!!!!!!!!!!!!!!!!!#$$$$$%%&&&&&&###&&&&&&%%$$$$$#!!!!!!!!!!!!!!!!",
"!!!!!!!!!!!!!!!!!#$$$$$%%&&&&&##&##&&&&&%%$$$$$#!!!!!!!!!!!!!!!!",
"!!!!!!!!!!!!!!!!!#$$$$$%%&&&&&&###&&&&&&%%$$$$$#!!!!!!!!!!!!!!!!",
"!!!!!!!!!!!!!!!!!#$$$$$%%&&&&&&&#&&&&&&&%%$$$$$#!!!!!!!!!!!!!!!!",
"!!!!!!!!!!!!!!!!!#$$$$$%%&&&&&&&&&&&&&&&%%$$$$$#!!!!!!!!!!!!!!!!",
"!!!!!!!!!!!!!!!!!#$$$$$%%&&&&&&&&&&&&&&&%%$$$$$#!!!!!!!!!!!!!!!!",
"!!!!!!!!!!!!!!!!!#$$$$$%%%&&&&&&&&&&&&&%%%$$$$$#!!!!!!!!!!!!!!!!",
"!!!!!!!!!!!!!!!!!##$$$$$%%%&&&&&&&&&&&%%%$$$$$##!!!!!!!!!!!!!!!!",
"!!!!!!!!!!!!!!!!!!#$$$$$%%%&&&&&&&&&&&%%%$$$$$#!!!!!!!!!!!!!!!!!",
"!!!!!!!!!!!!!!!!!!#$$$$$$%%%&&&&&&&&&%%%$$$$$$#!!!!!!!!!!!!!!!!!",
"!!!!!!!!!!!!!!!!!!##$$$$$$%%%%&&&&&%%%%$$$$$$##!!!!!!!!!!!!!!!!!",
"!!!!!!!!!!!!!!!!!!!#$$$$$$$%%%%%%%%%%%$$$$$$$#!!!!!!!!!!!!!!!!!!",
"!!!!!!!!!!!!!!!!!!!##$$$$$$$%%%%%%%%%$$$$$$$##!!!!!!!!!!!!!!!!!!",
"!!!!!!!!!!!!!!!!!!!!#$$$$$$$$$$%%%$$$$$$$$$$#!!!!!!!!!!!!!!!!!!!",
"!!!!!!!!!!!!!!!!!!!!##$$$$$$$$$$$$$$$$$$$$$##!!!!!!!!!!!!!!!!!!!",
"!!!!!!!!!!!!!!!!!!!!!##$$$$$$$$$$$$$$$$$$$##!!!!!!!!!!!!!!!!!!!!",
"!!!!!!!!!!!!!!!!!!!!!!##$$$$$$$$$$$$$$$$$##!!!!!!!!!!!!!!!!!!!!!",
"!!!!!!!!!!!!!!!!!!!!!!!##$$$$$$$$$$$$$$$##!!!!!!!!!!!!!!!!!!!!!!",
"!!!!!!!!!!!!!!!!!!!!!!!!###$$$$$$$$$$$###!!!!!!!!!!!!!!!!!!!!!!!",
"!!!!!!!!!!!!!!!!!!!!!!!!!!###$$$$$$$###!!!!!!!!!!!!!!!!!!!!!!!!!",
"!!!!!!!!!!!!!!!!!!!!!!!!!!!!#########!!!!!!!!!!!!!!!!!!!!!!!!!!!",
"!!!!!!!!!!!!!!!!!!!!&&&&&&&&&&&&&&&&&&&&&&&&&!!!!!!!!!!!!!!!!!!!",
"!!!!!!!!!!!!!!!!!!!!(((((((((((((((((((((((((!!!!!!!!!!!!!!!!!!!",
"!!!!!!!!!!!!!!!!!!!!!!!!!!!!!!#$$#!!!!!!!!!!!!!!!!!!!!!!!!!!!!!!",
"!!!!!!!!!!!!!!!!!!!!!!!!!!!!!!#$$#!!!!!!!!!!!!!!!!!!!!!!!!!!!!!!",
"!!!!!!!!!!!!!!!!!!!!!!!!!!!!!!#$$#!!!!!!!!!!!!!!!!!!!!!!!!!!!!!!",
"!!!!!!!!!!!!!!!!!!!!!!!!!!!!!!#$$#!!!!!!!!!!!!!!!!!!!!!!!!!!!!!!",
"!!!!!!!!!!!!!!!!!!!!!!!!!!!!!!#$$#!!!!!!!!!!!!!!!!!!!!!!!!!!!!!!",
"!!!!!!!!!!!!!!!!!!!!!!!!!!!!!!#$$#!!!!!!!!!!!!!!!!!!!!!!!!!!!!!!",
"!!!!!!!!!!!!!!!!!!!!!!!!!!!!!!!!!!!!!!!!!!!!!!!!!!!!!!!!!!!!!!!!",
"!!!!!!!!!!!!!!!!!!!!!!!!!!!!!!!!!!!!!!!!!!!!!!!!!!!!!!!!!!!!!!!!",
"!!!!!!!!!!!!!!!!!!!!!!!!!!!!!!!!!!!!!!!!!!!!!!!!!!!!!!!!!!!!!!!!",
"!!!!!!!!!!!!!!!!!!!!!!!!!!!!!!!!!!!!!!!!!!!!!!!!!!!!!!!!!!!!!!!!"
};