/* XPM */
static char *exit[] = {
"64 64 9 1",
"! c #9B8B7F",
"# c #6B5B4F",
"$ c #8B0000",
"% c #B22222",
"& c #FFD700",
"( c #B8860B",
") c #1a1a1a",
"* c #00A86B",
"+ c #006A4E",
"!!!!!!!!!!!!!!!!!!!!!!!!!!!!!!!!!!!!!!!!!!!!!!!!!!!!!!!!!!!!!!!!",
"!!!!!!!!!!!!!!!!!!!!!!!!!!!!!!!!!!!!!!!!!!!!!!!!!!!!!!!!!!!!!!!!",
"!!!!!!!!!!!!!!!!!!!!!!!!!!!!!!!!!!!!!!!!!!!!!!!!!!!!!!!!!!!!!!!!",
"!!!!!!!!!!!!!!!!!!!!!!!!!!!!!!!!!!!!!!!!!!!!!!!!!!!!!!!!!!!!!!!!",
"!!!!!!!!################((((((((((((((((#################!!!!!!!",
"!!!!!!!!############$$$$$$$$$$$$$$$$$$$$$$$$#############!!!!!!!",
"!!!!!!!!########$$$$$$$$$$$$$$$$$$$$$$$$$$$$$$$$#########!!!!!!!",
"!!!!!!!!####$$$$$$$$$$$$$$$$$$$$$$$$$$$$$$$$$$$$$$$$#####!!!!!!!",
"!!!!!!!!$$$$$$$$$$$$$$$$$$$$$$$$$$$$$$$$$$$$$$$$$$$$$$$$#!!!!!!!",
"!!!!((((((((((((((((((((((((((((((((((((((((((((((((((((((((!!!!",
"!!!!!!!!############((((((((((((((((((((((((#############!!!!!!!",
"!!!!!!!!#########$$$$$$$$$$$$$$$$$$$$$$$$$$$$$$##########!!!!!!!",
"!!!!!!$!######$$$$$$$$$$$$$$$$****$$$$$$$$$$$$$$$$#######$!!!!!!",
"!!!!!$$$###$$$$$$$$$$$$$$$$$$$****$$$$$$$$$$$$$$$$$$$###$$$!!!!!",
"!!!!$$&$$$$$$$$$$$$$$$$$$$$$$$$$$$$$$$$$$$$$$$$$$$$$$$$$$&$$!!!!",
"!!!!!$$$(((((((((((((((((((((((((((((((((((((((((((((((($$$!!!!!",
"!!!!!!$!#################################################$!!!!!!",
"!!!!!!!!#################################################!!!!!!!",
"!!!!!!!!######(&&&&&&&&&&&&&&&&&&&&&&&&&&&&&&&&&&(#######!!!!!!!",
"!!!!!!!!######(&((((((((((((((((((((((((((((((((&(#######!!!!!!!",
"!!!!!!!!######(&%%%%%%%%%%%%%%%((%%%%%%%%%%%%%%%&(#######!!!!!!!",
"!!!!!!!!######(&%%%%%%%%%%%%%%%((%%%%%%%%%%%%%%%&(#######!!!!!!!",
"!!!!!!!!######(&%%%%%%%%%%%%%%%((%%%%%%%%%%%%%%%&(#######!!!!!!!",
"!!!!!!!!######(&%%%%%%%%%%%%%%%((%%%%%%%%%%%%%%%&(#######!!!!!!!",
"!!!!!!!!######(&%%%%%%%%%%%%%%%((%%%%%%%%%%%%%%%&(#######!!!!!!!",
"!!!!!!!!######(&%%%%%%%%%%%%%%%((%%%%%%%%%%%%%%%&(#######!!!!!!!",
"!!!!!!!!######(&%%%%%%%%%%%%%%%((%%%%%%%%%%%%%%%&(#######!!!!!!!",
"!!!!!!!!######(&%%%%%%%%%%%%%%%((%%%%%%%%%%%%%%%&(#######!!!!!!!",
"!!!!!!!!######(&%%%%%%%%%%%%%%%((%%%%%%%%%%%%%%%&(#######!!!!!!!",
"!!!!!!!!######(&%%%%%%%%%%%%%%%((%%%%%%%%%%%%%%%&(#######!!!!!!!",
"!!!!!!!!######(&%%%%%%%%%%%%%%%((%%%%%%%%%%%%%%%&(#######!!!!!!!",
"!!!!!!!!######(&%%%%%%%%%%%%%%%((%%%%%%%%%%%%%%%&(#######!!!!!!!",
"!!!!!!!!######(&%%%%%%%%%%%%%%%((%%%%%%%%%%%%%%%&(#######!!!!!!!",
"!!!!!!!!######(&%%%%%%%%%%%%%%%((%%%%%%%%%%%%%%%&(#######!!!!!!!",
"!!!!!!!!######(&%%%%%%%%&%%%%%%((%%%%%%%&%%%%%%%&(#######!!!!!!!",
"!!!!!!!!######(&%%%%%%%&&&%%%%%((%%%%%%&&&%%%%%%&(#######!!!!!!!",
"!!!!!!!!######(&%%%%%%&&(&&%%%%((%%%%%&&(&&%%%%%&(#######!!!!!!!",
"!!!!!!!!######(&%%%%%%%&&&%%%%%((%%%%%%&&&%%%%%%&(#######!!!!!!!",
"!!!!!!!!######(&%%%%%%%%&%%%%%%((%%%%%%%&%%%%%%%&(#######!!!!!!!",
"!!!!!!!!######(&%%%%%%%%%%%%%%%((%%%%%%%%%%%%%%%&(#######!!!!!!!",
"!!!!!!!!######(&%%%%%%%%%%%%%%%((%%%%%%%%%%%%%%%&(#######!!!!!!!",
"!!!!!!!!######(&%%%%%%%%%%%%%%%((%%%%%%%%%%%%%%%&(#######!!!!!!!",
"!!!!!!!!######(&%%%%%%%%%%%%%%%((%%%%%%%%%%%%%%%&(#######!!!!!!!",
"!!!!!!!!######(&%%%%%%%%%%%%%%%((%%%%%%%%%%%%%%%&(#######!!!!!!!",
"!!!!!!!!######(&%%%%%%%%%%%%%%%((%%%%%%%%%%%%%%%&(#######!!!!!!!",
"!!!!!!!!######(&%%%%%%%%%%%%%%%((%%%%%%%%%%%%%%%&(#######!!!!!!!",
"!!!!!!!!######(&%%%%%%%%%%%%%%%((%%%%%%%%%%%%%%%&(#######!!!!!!!",
"!!!!!!!!######(&%%%%%%%%%%%%%%%((%%%%%%%%%%%%%%%&(#######!!!!!!!",
"!!!!!!!!######(&%%%%%%%%%%%%%%%((%%%%%%%%%%%%%%%&(#######!!!!!!!",
"!!!!!!!!######(&%%%%%%%%%%%%%%%((%%%%%%%%%%%%%%%&(#######!!!!!!!",
"!!!!!!!!######(&%%%%%%%%%%%%%%%((%%%%%%%%%%%%%%%&(#######!!!!!!!",
"!!!!!!!!######(&%%%%%%%%%%%%%%%((%%%%%%%%%%%%%%%&(#######!!!!!!!",
"!!!!!!!!######(&%%%%%%%%%%%%%%%((%%%%%%%%%%%%%%%&(#######!!!!!!!",
"!!!!!!!!######(&%%%%%%%%%%%%%%%((%%%%%%%%%%%%%%%&(#######!!!!!!!",
"!!!!!!!!######(&%%%%%%%%%%%%%%%((%%%%%%%%%%%%%%%&(#######!!!!!!!",
"!!!!!!!!######(&%%%%%%%%%%%%%%%((%%%%%%%%%%%%%%%&(#######!!!!!!!",
"!!!!!!!!######(&%%%%%%%%%%%%%%%((%%%%%%%%%%%%%%%&(#######!!!!!!!",
"!!!!!!!!######(&%%%%%%%%%%%%%%%((%%%%%%%%%%%%%%%&(#######!!!!!!!",
"!!!!!!!!######(&&&&&&&&&&&&&&&&&&&&&&&&&&&&&&&&&&(#######!!!!!!!",
"!!!!!!!!######(&((((((((((((((((((((((((((((((((&(#######!!!!!!!",
"!!!!!!!!#################################################!!!!!!!",
"!!!!!!!!!!!!!!!!!!!!!!!!!!!!!!!!!!!!!!!!!!!!!!!!!!!!!!!!!!!!!!!!",
"!!!!!!!!!!!!!!!!!!!!!!!!!!!!!!!!!!!!!!!!!!!!!!!!!!!!!!!!!!!!!!!!",
"!!!!!!!!!!!!!!!!!!!!!!!!!!!!!!!!!!!!!!!!!!!!!!!!!!!!!!!!!!!!!!!!"
};