/* XPM */
static char *floor[] = {
"64 64 4 1",
"! c #6B5B4F",
"# c #9B8B7F",
"$ c #C4B5A8",
"% c #B8860B",
"!!!!!!!!!!!!!!!!!!!!!!!!!!!!!!!!!!!!!!!!!!!!!!!!!!!!!!!!!!!!!!!!",
"!$$!##$$!##$$!#!!#$$!##$$!##$$!!!##$$!##$$!##$$!!!##$$!##$$!##$!",
"!!##$$!##$$!##$!!$!##$$!##$$!##!!$$!##$$!##$$!#!!#$$!##$$!##$$!!",
"!#$$!##$$!##$$!!!##$$!##$$!##$$!!!##$$!##$$!##$!!$!##$$!##$$!##!",
"!$!##$$!##$$!##!!$$!##$$!##$$!#!!#$$!##$$!##$$!!!##$$!##$$!##$$!",
"!##$$!##$$!##$$!!!##$$!##$$!##$!!$!##$$!##$$!##!!$$!##$$!##$$!#!",
"!$$!##$$!##$$!#!!#$$!##$$!##$$!!!##$$!##$$!##$$!!!##$$!##$$!##$!",
"!!##$$!##$$!##$!!$!##$$!##$$!##!!$$!##$$!##$$!#!!#$$!##$$!##$$!!",
"!#$$!##$$!##$$!!!##$$!##$$!##$$!!!##$$!##$$!##$!!$!##$$!##$$!##!",
"!$!##$$!##$$!##!!$$!##$$!##$$!#!!#$$!##$$!##$$!!!##$$!##$$!##$$!",
"!##$$!##$$!##$$!!!##$$!##$$!##$!!$!##$$!##$$!##!!$$!##$$!##$$!#!",
"!$$!##$$!##$$!#!!#$$!##$$!##$$!!!##$$!##$$!##$$!!!##$$!##$$!##$!",
"!!##$$!##$$!##$!!$!##$$!##$$!##!!$$!##$$!##$$!#!!#$$!##$$!##$$!!",
"!#$$!##$$!##$$!!!##$$!##$$!##$$!!!##$$!##$$!##$!!$!##$$!##$$!##!",
"!$!##$$!##$$!##!!$$!##$$!##$$!#!!#$$!##$$!##$$!!!##$$!##$$!##$$!",
"!!!!!!!!!!!!!!!%%!!!!!!!!!!!!!!%%!!!!!!!!!!!!!!%%!!!!!!!!!!!!!!!",
"!!!!!!!!!!!!!!!%%!!!!!!!!!!!!!!%%!!!!!!!!!!!!!!%%!!!!!!!!!!!!!!!",
"!#$$!##$$!##$$!!!##$$!##$$!##$$!!!##$$!##$$!##$!!$!##$$!##$$!##!",
"!$!##$$!##$$!##!!$$!##$$!##$$!#!!#$$!##$$!##$$!!!##$$!##$$!##$$!",
"!##$$!##$$!##$$!!!##$$!##$$!##$!!$!##$$!##$$!##!!$$!##$$!##$$!#!",
"!$$!##$$!##$$!#!!#$$!##$$!##$$!!!##$$!##$$!##$$!!!##$$!##$$!##$!",
"!!##$$!##$$!##$!!$!##$$!##$$!##!!$$!##$$!##$$!#!!#$$!##$$!##$$!!",
"!#$$!##$$!##$$!!!##$$!##$$!##$$!!!##$$!##$$!##$!!$!##$$!##$$!##!",
"!$!##$$!##$$!##!!$$!##$$!##$$!#!!#$$!##$$!##$$!!!##$$!##$$!##$$!",
"!##$$!##$$!##$$!!!##$$!##$$!##$!!$!##$$!##$$!##!!$$!##$$!##$$!#!",
"!$$!##$$!##$$!#!!#$$!##$$!##$$!!!##$$!##$$!##$$!!!##$$!##$$!##$!",
"!!##$$!##$$!##$!!$!##$$!##$$!##!!$$!##$$!##$$!#!!#$$!##$$!##$$!!",
"!#$$!##$$!##$$!!!##$$!##$$!##$$!!!##$$!##$$!##$!!$!##$$!##$$!##!",
"!$!##$$!##$$!##!!$$!##$$!##$$!#!!#$$!##$$!##$$!!!##$$!##$$!##$$!",
"!##$$!##$$!##$$!!!##$$!##$$!##$!!$!##$$!##$$!##!!$$!##$$!##$$!#!",
"!$$!##$$!##$$!#!!#$$!##$$!##$$!!!##$$!##$$!##$$!!!##$$!##$$!##$!",
"!!!!!!!!!!!!!!!%%!!!!!!!!!!!!!!%%!!!!!!!!!!!!!!%%!!!!!!!!!!!!!!!",
"!!!!!!!!!!!!!!!%%!!!!!!!!!!!!!!%%!!!!!!!!!!!!!!%%!!!!!!!!!!!!!!!",
"!##$$!##$$!##$$!!!##$$!##$$!##$!!$!##$$!##$$!##!!$$!##$$!##$$!#!",
"!$$!##$$!##$$!#!!#$$!##$$!##$$!!!##$$!##$$!##$$!!!##$$!##$$!##$!",
"!!##$$!##$$!##$!!$!##$$!##$$!##!!$$!##$$!##$$!#!!#$$!##$$!##$$!!",
"!#$$!##$$!##$$!!!##$$!##$$!##$$!!!##$$!##$$!##$!!$!##$$!##$$!##!",
"!$!##$$!##$$!##!!$$!##$$!##$$!#!!#$$!##$$!##$$!!!##$$!##$$!##$$!",
"!##$$!##$$!##$$!!!##$$!##$$!##$!!$!##$$!##$$!##!!$$!##$$!##$$!#!",
"!$$!##$$!##$$!#!!#$$!##$$!##$$!!!##$$!##$$!##$$!!!##$$!##$$!##$!",
"!!##$$!##$$!##$!!$!##$$!##$$!##!!$$!##$$!##$$!#!!#$$!##$$!##$$!!",
"!#$$!##$$!##$$!!!##$$!##$$!##$$!!!##$$!##$$!##$!!$!##$$!##$$!##!",
"!$!##$$!##$$!##!!$$!##$$!##$$!#!!#$$!##$$!##$$!!!##$$!##$$!##$$!",
"!##$$!##$$!##$$!!!##$$!##$$!##$!!$!##$$!##$$!##!!$$!##$$!##$$!#!",
"!$$!##$$!##$$!#!!#$$!##$$!##$$!!!##$$!##$$!##$$!!!##$$!##$$!##$!",
"!!##$$!##$$!##$!!$!##$$!##$$!##!!$$!##$$!##$$!#!!#$$!##$$!##$$!!",
"!#$$!##$$!##$$!!!##$$!##$$!##$$!!!##$$!##$$!##$!!$!##$$!##$$!##!",
"!!!!!!!!!!!!!!!%%!!!!!!!!!!!!!!%%!!!!!!!!!!!!!!%%!!!!!!!!!!!!!!!",
"!!!!!!!!!!!!!!!%%!!!!!!!!!!!!!!%%!!!!!!!!!!!!!!%%!!!!!!!!!!!!!!!",
"!!##$$!##$$!##$!!$!##$$!##$$!##!!$$!##$$!##$$!#!!#$$!##$$!##$$!!",
"!#$$!##$$!##$$!!!##$$!##$$!##$$!!!##$$!##$$!##$!!$!##$$!##$$!##!",
"!$!##$$!##$$!##!!$$!##$$!##$$!#!!#$$!##$$!##$$!!!##$$!##$$!##$$!",
"!##$$!##$$!##$$!!!##$$!##$$!##$!!$!##$$!##$$!##!!$$!##$$!##$$!#!",
"!$$!##$$!##$$!#!!#$$!##$$!##$$!!!##$$!##$$!##$$!!!##$$!##$$!##$!",
"!!##$$!##$$!##$!!$!##$$!##$$!##!!$$!##$$!##$$!#!!#$$!##$$!##$$!!",
"!#$$!##$$!##$$!!!##$$!##$$!##$$!!!##$$!##$$!##$!!$!##$$!##$$!##!",
"!$!##$$!##$$!##!!$$!##$$!##$$!#!!#$$!##$$!##$$!!!##$$!##$$!##$$!",
"!##$$!##$$!##$$!!!##$$!##$$!##$!!$!##$$!##$$!##!!$$!##$$!##$$!#!",
"!$$!##$$!##$$!#!!#$$!##$$!##$$!!!##$$!##$$!##$$!!!##$$!##$$!##$!",
"!!##$$!##$$!##$!!$!##$$!##$$!##!!$$!##$$!##$$!#!!#$$!##$$!##$$!!",
"!#$$!##$$!##$$!!!##$$!##$$!##$$!!!##$$!##$$!##$!!$!##$$!##$$!##!",
"!$!##$$!##$$!##!!$$!##$$!##$$!#!!#$$!##$$!##$$!!!##$$!##$$!##$$!",
"!##$$!##$$!##$$!!!##$$!##$$!##$!!$!##$$!##$$!##!!$$!##$$!##$$!#!",
"!!!!!!!!!!!!!!!!!!!!!!!!!!!!!!!!!!!!!!!!!!!!!!!!!!!!!!!!!!!!!!!!"
};