/* XPM */
static char *player[] = {
"64 64 9 1",
"! c None",
"# c #1a1a1a",
"$ c #C0C0C0",
"% c #808080",
"& c #00FFFF",
"( c #008B8B",
") c #9370DB",
"* c #FFFFFF",
"+ c #9B8B7F",
"++++++++++++++++++++++++++++++++++++++++++++++++++++++++++++++++",
"++++++++++++++++++++++++++++++++++++++++++++++++++++++++++++++++",
"++++++++++++++++++++++++++++++++++++++++++++++++++++++++++++++++",
"++++++++++++++++++++++++++++++++++++++++++++++++++++++++++++++++",
"++++++++++++++++++++++++++++++++++++++++++++++++++++++++++++++++",
"++++++++++++++++++++++++++++++++++++++++++++++++++++++++++++++++",
"++++++++++++++++++++++++++++++++++++++++++++++++++++++++++++++++",
"++++++++++++++++++++++++++++++++++++++++++++++++++++++++++++++++",
"++++++++++++++++++++++++++++++++++++++++++++++++++++++++++++++++",
"++++++++++++++++++++++++++++++++++++++++++++++++++++++++++++++++",
"++++++++++++++++++++++++++++++++++++++++++++++++++++++++++++++++",
"++++++++++++++++++++++++++++++++++++++++++++++++++++++++++++++++",
"++++++++++++++++++++++++++++++++++++++++++++++++++++++++++++++++",
"++++++++++++++++++++++++++++++++++++++++++++++++++++++++++++++++",
"++++++++++++++########++++++++++++++++++++########++++++++++++++",
"++++++++++++++#%%%%%%#++++++++++++++++++++#%%%%%%#++++++++++++++",
"++++++++++++++#%%%%%%#++++++++++++++++++++#%%%%%%#++++++++++++++",
"++++++++++++++#%%%%%%#++++++++++++++++++++#%%%%%%#++++++++++++++",
"++++++++++++++#%%%############################%%%#++++++++++++++",
"++++++++++++++#%%%#$$$$$$$$$$$$$$$$$$$$$$$$$$#%%%#++++++++++++++",
"++++++++++++++#%%%#$$$$$$$$$&&&&&&&&$$$$$$$$$#%%%#++++++++++++++",
"++++++++++++++#####$$$$$$$$$&&**&&&&$$$$$$$$$#####++++++++++++++",
"++++++++++++++++++#$$$$$$$$$&&*&&&&&$$$$$$$$$#++++++++++++++++++",
"++++++++++++++++++#$$$$$$$$$&&&&&&&&$$$$$$$$$#++++++++++++++++++",
"++++++++++++++++++#$$$$$$$$$$$$$$$$$$$$$$$$$$#++++++++++++++++++",
"++++++++++++++++++#$$$$$$$$$$$$$$$$$$$$$$$$$$#++++++++++++++++++",
"++++++++++++++++++#$(($$$$$$$$$$$$$$$$$$$$(($#++++++++++++++++++",
"++++++++++++++++++#$$$$$$$$$$$$$$$$$$$$$$$$$$#++++++++++++++++++",
"++++++++++++++++++#$$$$$$$$$$$$$$$$$$$$$$$$$$#++++++++++++++++++",
"++++++++++++++++++#$))))))))))))))))))))))))$#++++++++++++++++++",
"++++++++++++++++++#$))))))))))))))))))))))))$#++++++++++++++++++",
"++++++++++++++++++#$))))))))))))))))))))))))$#++++++++++++++++++",
"++++++++++++++++++#$))))))))))))))))))))))))$#++++++++++++++++++",
"++++++++++++++++++#$))))))))))))))))))))))))$#++++++++++++++++++",
"++++++++++++++++++#$))))))))))))))))))))))))$#++++++++++++++++++",
"++++++++++++++++++#$))))))))))))))))))))))))$#++++++++++++++++++",
"++++++++++++++++++#$))))))))))))))))))))))))$#++++++++++++++++++",
"++++++++++++++++++#$))))))))))))))))))))))))$#++++++++++++++++++",
"++++++++++++++++++#$))))))))))))))))))))))))$#++++++++++++++++++",
"++++++++++++++++++#$$$$$$$$$$$$$$$$$$$$$$$$$$#++++++++++++++++++",
"++++++++++++++++++#$$$$$$$$$$$$$$$$$$$$$$$$$$#++++++++++++++++++",
"++++++++++++++++++#$$$$$$$$$$$$$$$$$$$$$$$$$$#++++++++++++++++++",
"++++++++++++++#####$$$$$$$$$$$$$$$$$$$$$$$$$$#####++++++++++++++",
"++++++++++++++#%%%#$$$$$$$$$$$$$$$$$$$$$$$$$$#%%%#++++++++++++++",
"++++++++++++++#%%%#$$$$$$$$$$$&&&&$$$$$$$$$$$#%%%#++++++++++++++",
"++++++++++++++#%%%#$$$$$$$$$$$&$$&$$$$$$$$$$$#%%%#++++++++++++++",
"++++++++++++++#%%%#$$$$$$$$$$$&&&$$$$$$$$$$$$#%%%#++++++++++++++",
"++++++++++++++#%%%#$$$$$$$$$$$$$$$$$$$$$$$$$$#%%%#++++++++++++++",
"++++++++++++++#%%%#$$$$$$$$$$$$$$$$$$$$$$$$$$#%%%#++++++++++++++",
"++++++++++++++####################################++++++++++++++",
"++++++++++++++++++++++++++++++++++++++++++++++++++++++++++++++++",
"++++++++++++++++++++++++++++++++++++++++++++++++++++++++++++++++",
"++++++++++++++++++++++++++++++++++++++++++++++++++++++++++++++++",
"++++++++++++++++++++++++++++++++++++++++++++++++++++++++++++++++",
"++++++++++++++++++++++++++++++++++++++++++++++++++++++++++++++++",
"++++++++++++++++++++++++++++++++++++++++++++++++++++++++++++++++",
"++++++++++++++++++++++++++++++++++++++++++++++++++++++++++++++++",
"++++++++++++++++++++++++++++++++++++++++++++++++++++++++++++++++",
"++++++++++++++++++++++++++++++++++++++++++++++++++++++++++++++++",
"++++++++++++++++++++++++++++++++++++++++++++++++++++++++++++++++",
"++++++++++++++++++++++++++++++++++++++++++++++++++++++++++++++++",
"++++++++++++++++++++++++++++++++++++++++++++++++++++++++++++++++",
"++++++++++++++++++++++++++++++++++++++++++++++++++++++++++++++++",
"++++++++++++++++++++++++++++++++++++++++++++++++++++++++++++++++"
};