/* XPM */
static char *wall[] = {
"64 64 6 1",
"! c #8B0000",
"# c #B22222",
"$ c #DC143C",
"% c #FFD700",
"& c #B8860B",
"( c #1a1a1a",
"&&&&&&&&&&&&&&&&&&&&&&&&&&&&&&&&&&&&&&&&&&&&&&&&&&&&&&&&&&&&&&&&",
"&%%%%%%%%%%%%%%%%%%%%%%%%%%%%%%%%%%%%%%%%%%%%%%%%%%%%%%%%%%%%%%&",
"&%!!!!!((!!!!!!!!!!!!!!((!!!!!!!!!!!!!!((!!!!!!!!!!!!!!((!!!!!%&",
"&%###$$((!!##########$$((!!##########$$((!!##########$$((!!###%&",
"&%###$$((!!##########$$((!!##########$$((!!##########$$((!!###%&",
"&%###$$((!!##########$$((!!##########$$((!!##########$$((!!###%&",
"&%###$$((!!##########$$((!!##########$$((!!##########$$((!!###%&",
"&%###$$((!!##########$$((!!##########$$((!!##########$$((!!###%&",
"&%###$$((!!##########$$((!!##########$$((!!##########$$((!!###%&",
"&%###$$((!!##########$$((!!##########$$((!!##########$$((!!###%&",
"&%###$$((!!##########$$((!!##########$$((!!##########$$((!!###%&",
"&%###$$((!!##########$$((!!##########$$((!!##########$$((!!###%&",
"&%###$$((!!##########$$((!!##########$$((!!##########$$((!!###%&",
"&%$$$$$((!!$$$$$$$$$$$$((!!$$$$$$$$$$$$((!!$$$$$$$$$$$$((!!$$$%&",
"&%$$$$$((!!$$$$$$$$$$$$((!!$$$$$$$$$$$$((!!$$$$$$$$$$$$((!!$$$%&",
"&%((((((((((((((((((((((((((((((((((((((((((((((((((((((((((((%&",
"&%((((((((((((((((((((((((((((((((((((((((((((((((((((((((((((%&",
"&%!!!!!!!!!!!!!((!!!!!!!!!!!!!!((!!!!!!!!!!!!!!((!!!!!!!!!!!!!%&",
"&%!!!!!!!!!!!!!((!!!!!!!!!!!!!!((!!!!!!!!!!!!!!((!!!!!!!!!!!!!%&",
"&%!##########$$((!!##########$$((!!##########$$((!!##########$%&",
"&%!##########$$((!!##########$$((!!##########$$((!!##########$%&",
"&%!##########$$((!!##########$$((!!##########$$((!!##########$%&",
"&%!##########$$((!!##########$$((!!##########$$((!!##########$%&",
"&%!##########$$((!!##########$$((!!##########$$((!!##########$%&",
"&%!##########$$((!!##########$$((!!##########$$((!!##########$%&",
"&%!##########$$((!!##########$$((!!##########$$((!!##########$%&",
"&%!##########$$((!!##########$$((!!##########$$((!!##########$%&",
"&%!##########$$((!!##########$$((!!##########$$((!!##########$%&",
"&%!##########$$((!!##########$$((!!##########$$((!!##########$%&",
"&%!$$$$$$$$$$$$((!!$$$$$$$$$$$$((!!$$$$$$$$$$$$((!!$$$$$$$$$$$%&",
"&%!$$$$$$$$$$$$((!!$$$$$$$$$$$$((!!$$$$$$$$$$$$((!!$$$$$$$$$$$%&",
"&%((((((((((((((((((((((((((((((((((((((((((((((((((((((((((((%&",
"&%((((((((((((((((((((((((((((((((((((((((((((((((((((((((((((%&",
"&%!!!!!((!!!!!!!!!!!!!!((!!!!!!!!!!!!!!((!!!!!!!!!!!!!!((!!!!!%&",
"&%!!!!!((!!!!!!!!!!!!!!((!!!!!!!!!!!!!!((!!!!!!!!!!!!!!((!!!!!%&",
"&%###$$((!!##########$$((!!##########$$((!!##########$$((!!###%&",
"&%###$$((!!##########$$((!!##########$$((!!##########$$((!!###%&",
"&%###$$((!!##########$$((!!##########$$((!!##########$$((!!###%&",
"&%###$$((!!##########$$((!!##########$$((!!##########$$((!!###%&",
"&%###$$((!!##########$$((!!##########$$((!!##########$$((!!###%&",
"&%###$$((!!##########$$((!!##########$$((!!##########$$((!!###%&",
"&%###$$((!!##########$$((!!##########$$((!!##########$$((!!###%&",
"&%###$$((!!##########$$((!!##########$$((!!##########$$((!!###%&",
"&%###$$((!!##########$$((!!##########$$((!!##########$$((!!###%&",
"&%###$$((!!##########$$((!!##########$$((!!##########$$((!!###%&",
"&%$$$$$((!!$$$$$$$$$$$$((!!$$$$$$$$$$$$((!!$$$$$$$$$$$$((!!$$$%&",
"&%$$$$$((!!$$$$$$$$$$$$((!!$$$$$$$$$$$$((!!$$$$$$$$$$$$((!!$$$%&",
"&%((((((((((((((((((((((((((((((((((((((((((((((((((((((((((((%&",
"&%((((((((((((((((((((((((((((((((((((((((((((((((((((((((((((%&",
"&%!!!!!!!!!!!!!((!!!!!!!!!!!!!!((!!!!!!!!!!!!!!((!!!!!!!!!!!!!%&",
"&%!!!!!!!!!!!!!((!!!!!!!!!!!!!!((!!!!!!!!!!!!!!((!!!!!!!!!!!!!%&",
"&%!##########$$((!!##########$$((!!##########$$((!!##########$%&",
"&%!##########$$((!!##########$$((!!##########$$((!!##########$%&",
"&%!##########$$((!!##########$$((!!##########$$((!!##########$%&",
"&%!##########$$((!!##########$$((!!##########$$((!!##########$%&",
"&%!##########$$((!!##########$$((!!##########$$((!!##########$%&",
"&%!##########$$((!!##########$$((!!##########$$((!!##########$%&",
"&%!##########$$((!!##########$$((!!##########$$((!!##########$%&",
"&%!##########$$((!!##########$$((!!##########$$((!!##########$%&",
"&%!##########$$((!!##########$$((!!##########$$((!!##########$%&",
"&%!##########$$((!!##########$$((!!##########$$((!!##########$%&",
"&%!$$$$$$$$$$$$((!!$$$$$$$$$$$$((!!$$$$$$$$$$$$((!!$$$$$$$$$$$%&",
"&%%%%%%%%%%%%%%%%%%%%%%%%%%%%%%%%%%%%%%%%%%%%%%%%%%%%%%%%%%%%%%&",
"&&&&&&&&&&&&&&&&&&&&&&&&&&&&&&&&&&&&&&&&&&&&&&&&&&&&&&&&&&&&&&&&"
};